src/icons/svg/product-hunt.svg

<svg width="20" height="20" fill="none" xmlns="http://www.w3.org/2000/svg"><path d="M9.224 1.033a9.127 9.127 0 0 0-4.873 1.961c-.384.302-1.213 1.16-1.529 1.581a8.991 8.991 0 0 0-.001 10.85c.384.512 1.242 1.37 1.754 1.754a8.991 8.991 0 0 0 10.85 0c.512-.384 1.37-1.242 1.754-1.754a8.991 8.991 0 0 0-.001-10.85c-.316-.421-1.145-1.279-1.529-1.581-1.296-1.021-2.751-1.656-4.337-1.894-.523-.078-1.613-.113-2.088-.067m2.739 4.561a3.184 3.184 0 0 1 1.86 1.328c.357.548.51 1.066.51 1.728 0 .659-.153 1.181-.506 1.722a3.232 3.232 0 0 1-1.851 1.336c-.245.068-.342.073-1.801.084l-1.542.012V14.5H6.867V5.497l2.408.011c2.364.012 2.413.013 2.688.086m-3.33 3.054V10h1.36c1.499 0 1.614-.012 1.912-.203.481-.309.725-.863.614-1.395a1.333 1.333 0 0 0-.778-.979l-.224-.106-1.442-.01-1.442-.01v1.351" fill="#19191C" fill-rule="evenodd"/></svg>

<svg width="20" height="20" viewBox="0 0 20 20" fill="none" xmlns="http://www.w3.org/2000/svg"><path d="M9.224 1.033 C 7.407 1.209,5.791 1.860,4.351 2.994 C 3.967 3.296,3.138 4.154,2.822 4.575 C 0.394 7.814,0.393 12.182,2.821 15.425 C 3.205 15.937,4.063 16.795,4.575 17.179 C 7.818 19.607,12.182 19.607,15.425 17.179 C 15.937 16.795,16.795 15.937,17.179 15.425 C 19.607 12.182,19.606 7.814,17.178 4.575 C 16.862 4.154,16.033 3.296,15.649 2.994 C 14.353 1.973,12.898 1.338,11.312 1.100 C 10.789 1.022,9.699 0.987,9.224 1.033 M11.963 5.594 C 12.737 5.799,13.399 6.272,13.823 6.922 C 14.180 7.470,14.333 7.988,14.333 8.650 C 14.333 9.309,14.180 9.831,13.827 10.372 C 13.404 11.020,12.748 11.493,11.976 11.708 C 11.731 11.776,11.634 11.781,10.175 11.792 L 8.633 11.804 8.633 13.152 L 8.633 14.500 7.750 14.500 L 6.867 14.500 6.867 9.999 L 6.867 5.497 9.275 5.508 C 11.639 5.520,11.688 5.521,11.963 5.594 M8.633 8.648 L 8.633 10.000 9.993 10.000 C 11.492 10.000,11.607 9.988,11.905 9.797 C 12.386 9.488,12.630 8.934,12.519 8.402 C 12.425 7.950,12.166 7.624,11.741 7.423 L 11.517 7.317 10.075 7.307 L 8.633 7.297 8.633 8.648 " fill="#19191C" stroke="none" fill-rule="evenodd"></path></svg>
